X: 151662
T: Old Hag, Beware!
S: B.Breathnach:"Ceol Rince na hEireann" IV/56 (gan ainm)
Z: B.Black
L: 1/8
M: 12/8
Q: 360
R: jig
K: G
G2B BAB def g2e|dBB B2A dBB B2A|
G2B BAB def g2b|afd dgb a3 g3 :|
g2g gfg a2a aba|g2g gfg a2e e2f|
g2g gfg a2a aba|gfe dgb a3 g3 :|
